static/assets/img/icons/theme/devices/display-2.svg

<svg height="24" viewBox="0 0 24 24" width="24" xmlns="http://www.w3.org/2000/svg"><g fill="none" fill-rule="evenodd"><path d="m0 0h24v24h-24z" opacity="0"/><g fill="#000"><path d="m6 7v8h12v-8z" opacity=".3"/><path d="m11 19v-3c0-.5522847.4477153-1 1-1s1 .4477153 1 1v3h1.5c.2761424 0 .5.2238576.5.5s-.2238576.5-.5.5h-5c-.27614237 0-.5-.2238576-.5-.5s.22385763-.5.5-.5z" opacity=".3"/><path d="m6 7v8h12v-8zm0-2h12c1.1045695 0 2 .8954305 2 2v8c0 1.1045695-.8954305 2-2 2h-12c-1.1045695 0-2-.8954305-2-2v-8c0-1.1045695.8954305-2 2-2z" fill-rule="nonzero"/></g></g></svg>

<svg width="24px" height="24px" viewBox="0 0 24 24" version="1.1" xmlns="http://www.w3.org/2000/svg" xmlns:xlink="http://www.w3.org/1999/xlink">
    <title>Icon For Display#2</title>
    <g stroke="none" stroke-width="1" fill="none" fill-rule="evenodd">
        <rect opacity="0" x="0" y="0" width="24" height="24"></rect>
        <polygon fill="#000000" opacity="0.3" points="6 7 6 15 18 15 18 7"></polygon>
        <path d="M11,19 L11,16 C11,15.4477153 11.4477153,15 12,15 C12.5522847,15 13,15.4477153 13,16 L13,19 L14.5,19 C14.7761424,19 15,19.2238576 15,19.5 C15,19.7761424 14.7761424,20 14.5,20 L9.5,20 C9.22385763,20 9,19.7761424 9,19.5 C9,19.2238576 9.22385763,19 9.5,19 L11,19 Z" fill="#000000" opacity="0.3"></path>
        <path d="M6,7 L6,15 L18,15 L18,7 L6,7 Z M6,5 L18,5 C19.1045695,5 20,5.8954305 20,7 L20,15 C20,16.1045695 19.1045695,17 18,17 L6,17 C4.8954305,17 4,16.1045695 4,15 L4,7 C4,5.8954305 4.8954305,5 6,5 Z" fill="#000000" fill-rule="nonzero"></path>
    </g>
</svg>
